X:875
T:Bucks of Oranmore
M:4/4
O:Ireland
R:Reel
Z:Richard Robinson 
%%TUNEURL: http://www.leeds.ac.uk/music/Info/RRTuneBk/gettune/00000a65.html
%%ID:00000a65
K:D
dB|\
A2F(F F)FdB|A2FA BA (3FED|\
A2F(F F)FAB|defd efdB|\
A2F(F F2)dB|A2FA BA (3FED|
DEFG A2AB|defd ef ::\
df|\
a2fd edBd|a2fa beed|a2fd edBd|g2 (3fgf edBd|
a2fd edBd|a2fd beed|fa (3aaa bfaf|defd ef::\
de|\
f2df efde|f2df edBA|f2df efdf|g2(3fgf edBd|\
f2df efde|f2df edBA|
fa (3aaa bfaf|defd ef::\
dB|\
Adfd edfd|Adfd edBd|Adfd edBd|g2 (3fgf edBd|
Adfd edfd|Adfd edBd|fa (3aaa bf af|defd ef:|
